lib/flags/m/UY.svg

<svg xmlns="http://www.w3.org/2000/svg" fill="none" viewBox="0 0 20 15"><mask id="UY_svg__a" width="20" height="15" x="0" y="0" mask-type="alpha" maskUnits="userSpaceOnUse"><path fill="#fff" d="M0 0H20V15H0z"/></mask><g mask="url(#UY_svg__a)"><path fill="#F7FCFF" fill-rule="evenodd" d="M0 0V15H20V0H0Z" clip-rule="evenodd"/><mask id="UY_svg__b" width="20" height="15" x="0" y="0" mask-type="alpha" maskUnits="userSpaceOnUse"><path fill="#fff" fill-rule="evenodd" d="M0 0V15H20V0H0Z" clip-rule="evenodd"/></mask><g mask="url(#UY_svg__b)"><path fill="#2E42A5" d="M0 2.5H20V3.75H0z"/><path fill="#2E42A5" d="M0 5H20V6.25H0z"/><path fill="#2E42A5" d="M0 7.5H20V8.75H0z"/><path fill="#2E42A5" d="M0 10H20V11.25H0z"/><path fill="#2E42A5" d="M0 12.5H20V13.75H0z"/><path fill="#F7FCFF" d="M0 0H10V8.75H0z"/><path fill="#FFD018" fill-rule="evenodd" stroke="#F19900" stroke-opacity=".98" stroke-width=".5" d="M5.76722 6.89823C5.76722 6.89823 5.12853 8.22242 4.56719 8.49391C4.80949 7.88656 4.89867 6.64735 4.89867 6.64735C4.89867 6.64735 3.44122 7.22519 2.92968 7.11987C3.54479 6.69004 4.39859 5.8939 4.39859 5.8939C4.39859 5.8939 2.5122 5.27719 2.55848 5.01472C3.41003 5.16747 4.5811 5.00096 4.5811 5.00096C4.5811 5.00096 3.25773 3.41393 3.39194 3.29592C3.59366 3.49199 5.17963 4.32044 5.17963 4.32044C5.17963 4.32044 5.29469 2.90844 5.63601 2.43237C5.67695 2.76842 6.15601 4.2899 6.15601 4.2899C6.15601 4.2899 7.11906 3.32629 7.65358 3.32629C7.4188 3.61739 6.86286 4.89611 6.86286 4.89611C6.86286 4.89611 8.24836 4.8743 8.77507 5.13362C8.13702 5.22437 7.01917 5.78557 7.01917 5.78557C7.01917 5.78557 8.47507 6.88996 8.34233 7.11987C7.56065 6.73749 6.65694 6.60942 6.65694 6.60942C6.65694 6.60942 6.90673 8.14634 6.70482 8.49391C6.50789 7.98228 5.76722 6.89823 5.76722 6.89823Z" clip-rule="evenodd"/><path fill="#FFD018" fill-rule="evenodd" stroke="#F19900" stroke-opacity=".98" stroke-width=".5" d="M5.68347 6.18237C6.02865 6.18237 6.30847 5.90255 6.30847 5.55737C6.30847 5.2122 6.02865 4.93237 5.68347 4.93237C5.33829 4.93237 5.05847 5.2122 5.05847 5.55737C5.05847 5.90255 5.33829 6.18237 5.68347 6.18237Z" clip-rule="evenodd"/></g></g></svg>

<svg xmlns="http://www.w3.org/2000/svg" fill="none" viewBox="0 0 20 15"><mask id="UY_svg__a" width="20" height="15" x="0" y="0" maskUnits="userSpaceOnUse"><path fill="#fff" d="M0 0h20v15H0z"/></mask><g mask="url(#UY_svg__a)"><path fill="#F7FCFF" fill-rule="evenodd" d="M0 0v15h20V0H0z" clip-rule="evenodd"/><mask id="UY_svg__b" width="20" height="15" x="0" y="0" maskUnits="userSpaceOnUse"><path fill="#fff" fill-rule="evenodd" d="M0 0v15h20V0H0z" clip-rule="evenodd"/></mask><g mask="url(#UY_svg__b)"><path fill="#2E42A5" d="M0 2.5h20v1.25H0zM0 5h20v1.25H0zm0 2.5h20v1.25H0zM0 10h20v1.25H0zm0 2.5h20v1.25H0z"/><path fill="#F7FCFF" d="M0 0h10v8.75H0z"/><path fill="#FFD018" fill-rule="evenodd" stroke="#F19900" stroke-opacity=".98" stroke-width=".5" d="M5.767 6.898s-.638 1.324-1.2 1.596c.242-.607.332-1.847.332-1.847s-1.458.578-1.97.473c.616-.43 1.47-1.226 1.47-1.226s-1.887-.617-1.84-.88c.851.153 2.022-.013 2.022-.013s-1.323-1.587-1.19-1.705C3.595 3.492 5.18 4.32 5.18 4.32s.115-1.412.456-1.888c.04.336.52 1.858.52 1.858s.963-.964 1.498-.964c-.235.291-.791 1.57-.791 1.57s1.385-.022 1.912.238c-.638.09-1.756.652-1.756.652S8.475 6.89 8.342 7.12c-.781-.383-1.685-.51-1.685-.51s.25 1.536.048 1.884c-.197-.512-.938-1.596-.938-1.596z" clip-rule="evenodd"/><path fill="#FFD018" fill-rule="evenodd" stroke="#F19900" stroke-opacity=".98" stroke-width=".5" d="M5.683 6.182a.625.625 0 100-1.25.625.625 0 000 1.25z" clip-rule="evenodd"/></g></g></svg>
